X: 40496
T: Tommy Coen's
R: reel
M: 4/4
K: Gmixolydian
DE^F|:G2dG (3GGG dG|~F2cF AFFA|G2dG (3GGG dG|FGAc dBcA|
G2dG (3GGG dG|~F2cF AFFG|FDCD FGAc|1 dBcA GDE^F:|2 dBcA GA_Bc||
K:Dmin
dg~g2 dgge|f2af cfaf|dg~g2 dgge|fdcA FGAc|
dg~g2 dgge|f2af cfaf|d3e (3fga ge|1 fdcA GABc:|2 fdcA GDE^F||

